X:1
T:Moonlight Sonata
T:Moonlight Sonata
T:Organ Full 
T:Beetheveen Arr. by Gregory J Cox
C:Arun Nambirajan
%%score { 1 | 2 | 3 }
L:1/8
Q:1/4=45
M:4/4
K:E
V:1 treble nm="Pipe Organ" snm="Org."
V:2 bass 
V:3 bass-8 
V:1
 z8 | z8 | z8 | z8 | z2 z2 z2!p! G>G | G6 G>G | G4 A4 | G4 F2 B2 | E8 | z2 z2 z2 =G>G | =G6 G>G | %11
 =G6 F2 | F4 =G2 E2 | F4 F4 | z2 z2 z2 B2 | =c6 _B2 | B6 B2 | =c6 _B2 | B4 B4 | B4 A4 | =G4 F4 | %21
 C4 C2 C2 | z2 z2 z2 c>c | c6 c>c | c4 =c2 ^c2 | d6 d2 | e4 d2 c2 | z2 G2 A2 F2 | z2 G,2 A,2 F,2 | %29
 z2 c2 e2 c2 | z2 C2 E2 C2 | z2 z2 (3=CFD (3AF=c | z2 z2 (3EcG (3ecG | z2 z2 (3_Bec (3=ge_b | %34
 z2 z2 (3daf (3=c'ad' | (3=c'fa (3df=c (3dAc (3FAD |[K:bass] z8 | =C,4 D,2 ^C,2 | =C,4 =D,2 ^C,2 | %39
 z8 | z8 |[K:treble] z2 z2 z2 G>G | G6 G>G | G4 A4 | G4 F2 B2 | E6 B>B | B6 B>B | B4 =c2 ^c2 | %48
 d4 e4 | =d4 =c4 | c6 c2 | =d6 =c2 | c6 c2 | =d6 =c2 | c4 c4 | B6 B2 | A2 A2 G2 G2 | F4 G2 A2 | %58
 G4 G4 | C2 z2 z4 | z8 | z2 z2 (3Gec (3gec | (3=cdA (3cFA z2 z2 | z2 z2 (3Gec (3gec | %64
 (3=cdA (3cFA z2 z2 | (3[E,C]G,C (3ECG, z2 z2 | z8 | z4!pp! C4 |!ppp! C8 |] %69
V:2
!p! (3G,CE (3G,CE (3G,CE (3G,CE | (3G,CE (3G,CE (3G,CE (3G,CE | (3A,CE (3A,CE (3A,=DF (3A,DF | %3
 (3G,=CF (3G,^CE (3G,CD (3F,=CD | (3E,G,C (3G,CE (3G,CE!p! (3G,CE | (3G,DF (3G,DF (3G,DF (3G,DF | %6
 (3G,CE (3G,CE (3A,CF (3A,CF | (3G,B,E (3G,B,E (3A,B,D (3A,B,D | (3G,B,E (3G,B,E (3G,B,E (3G,B,E | %9
 (3=G,B,E (3G,B,E (3G,B,E (3G,B,E | (3=G,B,=F (3G,B,F (3G,B,F (3G,B,F | %11
 (3=G,=CE (3G,B,E (3G,^CE (3F,CE | (3F,B,=D (3F,B,D (3=G,B,C (3E,B,C | %13
 (3F,B,=D (3F,B,D (3F,_B,C (3F,B,C | (3B,=DF (3B,DF (3B,^DF (3B,DF | (3B,E=G (3B,EG (3B,EG (3B,EG | %16
 (3B,DF (3B,DF (3B,DF (3B,DF | (3B,E=G (3B,EG (3B,EG (3B,EG | (3B,DF (3B,DF (3B,=D=F (3B,DF | %19
 (3B,CG (3B,CG (3A,CF (3A,CF | (3=G,B,=D (3G,B,D (3F,A,^D (3F,A,D | %21
[K:bass] (3C,F,A, (3C,F,A, (3C,F,G, (3C,=F,G, |[K:treble] (3F,A,C (3A,CF (3CFA (3CFA | %23
 (3CGB (3CGB (3CGB (3CGB | (3CFA (3CFA (3=CFA (3^CFA | (3DFG (3DFG (3DFG (3DFG | %26
 (3EGc (3EGc (3DFA (3CE_B | (3=c=CD (3GCD (3ACD (3FCD | (3z =CD (3G,CD (3A,CD (3F,CD | %29
 (3E,EG (3cEG (3eEG (3cEG |[K:bass] (3z E,G, (3CE,G, (3EE,G, (3CE,G, | (3D,A,F, (3=CA,D z2 z2 | %32
 (3E,CG, (3ECG z2 z2 |[K:treble] (3C=GE (3_BGc z2 z2 | (3F=cA (3dcf z2 z2 | z8 | %36
[K:bass] (3F=CD (3A,CF, (3A,D,F, (3C,F,A, | (3=C,F,G, (3A,G,F, (3D,F,A, (3^C,F,A, | %38
 (3=C,F,G, (3A,G,F, (3=D,F,A, (3^C,F,A, |[K:bass] (3=C,F,G, (3A,G,F, (3^C,E,C (3C,E,C | %40
 (3D,A,C (3D,A,C (3D,G,=C (3D,F,C |[K:treble] (3E,G,C (3G,CE (3G,CE (3G,CE | %42
 (3G,DF (3G,DF (3G,DF (3G,DF | (3G,CE (3G,CE (3A,CF (3A,CF | (3G,B,E (3G,B,E (3A,B,D (3A,B,D | %45
 (3G,B,E (3B,EG (3B,EG (3B,EG | (3B,FA (3B,FA (3B,FA (3B,FA | (3B,EG (3B,EG (3=CFG (3^CEG | %48
 (3DFG (3DFG (3EGc (3EGc | (3=DFA (3DFA (3=CFG (3CFG | (3CEG (3CEG (3C=FG (3CFG | %51
 (3CFA (3CFA (3CFA (3CFA | (3C=FG (3CFG (3CFG (3CFG | (3CFA (3CFA (3CFA (3CFA | %54
 (3C=FG (3CFG (3C^FA (3CFA | (3B,FA (3B,FA (3B,FA (3B,EG | (3A,EG (3A,DF (3G,DF (3G,CE | %57
 (3F,CD (3F,CD (3G,CD (3A,CD | (3G,CE (3G,CE (3G,=CD (3F,CD | (3E,G,C (3G,CE (3G,CE (3G,CE | %60
 (3G,DF (3G,DF (3G,DF (3G,DF | (3G,EC (3GEc z2 z2 | z2 z2 (3DFA, (3=CG,F, | (3E,EC (3GEc z2 z2 | %64
 z2 z2 (3DFA, (3=CG,F, | z2 z2 (3z E,G, (3CG,E, |[K:bass] (3z C,E, (3G,E,C, z2 z2 | z4!pp! G,4 | %68
!ppp! G,8 |] %69
V:3
!p! [C,C]8 | [B,,B,]8 | [A,,A,]4 [F,,F,]4 | [G,,G,]4 [G,,G,]4 | [C,G,C]8 | [=C,G,=C]8 | %6
 [C,C]4 [A,,A,]4 | [B,,B,]4 [B,,B,]4 | [E,E]8 | [E,E]8 | [=D,=D]8 | [=C,=C]2 [B,,B,]2 [_B,,_B,]4 | %12
 [B,,-B,]4 [B,,-E,]2 [B,,=G,]2 | F,4 [F,,F,]4 | [B,,B,]8- | [B,,B,]2 [E,E]2 [=G,=G]2 [E,E]2 | %16
 [B,,B,]8- | [B,,B,]2 [E,E]2 [=G,=G]2 [E,E]2 | [B,,B,]4 [G,,G,]4 | [=F,,=F,]4 [^F,,^F,]4 | %20
 [B,,B,]4 [=C,=C]4 | C,4 C,4 | [F,,C,F,]8 | [=F,C=F]8 | [F,F]4 [D,D]2 [C,C]2 | [=C,=C]6 [C,C]2 | %26
 [C,C]4 [F,,F,]2 [=G,,=G,]2 | [G,,G,]8 | [G,,G,]8 | [G,,G,]8 | [G,,G,]8 | [G,,G,]8 | [G,,G,]8 | %33
 [G,,G,]8 | [G,,G,]8- | ([G,,G,]8- | [G,,G,]8) | [G,,G,]8 | [G,,G,]8 | [G,,G,]4 [A,,A,]4 | %40
 [F,,F,]4 [G,,G,]4 | [C,C]8 | [=C,=C]8 | [C,C]4 [A,,A,]4 | [B,,B,]4 [B,,B,]4 | [E,E]8 | [D,D]8 | %47
 [E,E]4 [=C,D]2 [^C,C]2 | [=C,=C]4 [^C,^C]4 | [F,,F,]4 [G,,G,]4 | [C,C]8- | %51
 [C,C]2 [F,F]2 [A,A]2 [F,F]2 | [C,C]8- | [C,C]2 [F,F]2 [A,A]2 [F,F]2 | [C,C]4 [F,,F,]4 | %55
 [D,D]6 [E,E]2 | [C,C]2 [D,D]2 [=C,=C]2 [^C,^C]2 | [A,,A,]4 [G,,G,]2 [F,,F,]2 | [G,,G,]4 [G,,G,]4 | %59
 [C,-G,]6 [C,-G,]>[C,G,] | [=C,-G,]6 [C,-G,]>[C,G,] | [C,-G,]6 [C,-G,]>[C,G,] | %62
 [G,,-G,]6 [G,,-G,]>[G,,G,] | [C,-G,]6 [C,-G,]>[C,G,] | [G,,-G,]6 [G,,-G,]>[G,,G,] | %65
 [C,-G,]4 [C,-C]4 | [C,-G,]4 (3G,CG, (3E,G,[C,E,] | C,4!pp! [CE]4 |!ppp! [C,CE]8 |] %69

